Catalina-light/actions/16/labplot-TeX-logo.svg

<svg xmlns="http://www.w3.org/2000/svg" width="16" height="16" viewBox="0 0 16 16">
 <defs>
  <style id="current-color-scheme" type="text/css">
   .ColorScheme-Text { color:#5c616c; } .ColorScheme-Highlight { color:#5294e2; }
  </style>
 </defs>
 <path style="fill:currentColor" class="ColorScheme-Text" d="M 9.7890625 3.890625 L 8.9980469 4.5 L 11.263672 7.4453125 L 8.9980469 10.390625 L 9.7890625 11 L 11.894531 8.2636719 L 13.998047 11 L 14.789062 10.390625 L 12.525391 7.4453125 L 14.789062 4.5 L 13.998047 3.890625 L 11.894531 6.6269531 L 9.7890625 3.890625 z M -0.001953125 4 L -0.001953125 5 L 1.9980469 5 L 1.9980469 11 L 2.9980469 11 L 2.9980469 5 L 4.9980469 5 L 4.9980469 4 L -0.001953125 4 z M 3.9980469 6 L 3.9980469 7 L 3.9980469 8.5 L 3.9980469 9.5 L 3.9980469 12 L 3.9980469 13 L 8.9980469 13 L 8.9980469 12 L 4.9980469 12 L 4.9980469 10 L 8.9980469 10 L 8.9980469 9 L 4.9980469 9 L 4.9980469 7 L 8.9980469 7 L 8.9980469 6 L 3.9980469 6 z"/>
</svg>

<svg width="16" height="16" viewBox="0 0 16 16" xmlns="http://www.w3.org/2000/svg">
<defs>
<style id="current-color-scheme" type="text/css">.ColorScheme-Text { color:#5c616c; } .ColorScheme-Highlight { color:#5294e2; }</style>
</defs>
<path class="ColorScheme-Text" d="m9.7891 3.8906-0.79102 0.60938 2.2656 2.9453-2.2656 2.9453 0.79102 0.60938 2.1055-2.7363 2.1035 2.7363 0.79102-0.60938-2.2637-2.9453 2.2637-2.9453-0.79102-0.60938-2.1035 2.7363-2.1055-2.7363zm-9.791 0.10938v1h2v6h1v-6h2v-1h-5zm4 2v1 1.5 1 2.5 1h5v-1h-4v-2h4v-1h-4v-2h4v-1h-5z" fill="#363636"/>
</svg>
